public/home/dune-6.svg

<svg width="1278" height="351" viewBox="0 0 1278 351" fill="none" xmlns="http://www.w3.org/2000/svg">
<g filter="url(#filter1_i_2032_18)">
<path d="M0 52.8228L1.4107 350.462H1278L1278 5.38354C1278 5.38354 1211.06 21.8889 1153.51 25.0197C1095.96 28.1504 987.183 12.9662 933.921 14.5003C880.666 16.0406 866.741 25.1574 834.592 25.0197C802.45 24.8756 787.795 16.7607 742.153 14.4127C696.505 12.0583 612.688 19.4657 560.971 16.4601C509.249 13.4609 473.906 0.380353 432.34 0.00485066C390.774 -0.37084 357.78 21.203 290.499 20.8189C248.099 20.5766 207.356 2.63757 157.422 6.94061C118.313 10.3108 86.6344 30.4196 55.3919 33.2695C19.6686 36.5281 0 52.8228 0 52.8228Z" fill="#B8896E"/>
</g>
<path d="M432.33 1.00488C453.017 1.19176 472.166 4.5392 492.67 8.23242C513.161 11.9233 534.983 15.9544 560.913 17.458C586.828 18.964 620.762 17.8611 653.874 16.6797C687.021 15.497 719.332 14.2368 742.102 15.4111C764.861 16.582 779.887 19.1891 793.263 21.5273C806.65 23.8677 818.424 25.9471 834.588 26.0195C850.766 26.0888 862.372 23.8267 876.513 21.375C890.643 18.925 907.387 16.2683 933.95 15.5C960.513 14.7349 1000.95 18.14 1042.03 21.3555C1083.05 24.5667 1124.71 27.5883 1153.56 26.0186C1182.4 24.4497 1213.57 19.5309 1237.52 15.0098C1249.5 12.7486 1259.67 10.5855 1266.86 8.9873C1270.45 8.18823 1273.29 7.53055 1275.24 7.07227C1275.95 6.90567 1276.54 6.76437 1277 6.65332V349.463H2.40625L1.00195 53.3066C1.13557 53.2033 1.30511 53.0726 1.51172 52.9189C2.10458 52.478 2.99664 51.8396 4.18066 51.0615C6.54878 49.5053 10.0843 47.3899 14.7305 45.1709C24.0228 40.733 37.7561 35.8826 55.4824 34.2656C71.2527 32.8271 87.1143 27.035 103.785 21.2451C120.5 15.4399 138.091 9.6098 157.508 7.93652C182.335 5.79707 204.894 9.185 226.605 13.1592C248.281 17.1269 269.181 21.6975 290.493 21.8193C324.252 22.0121 349.411 16.6931 371.298 11.3867C393.209 6.07439 411.702 0.818514 432.33 1.00488Z" stroke="url(#paint0_linear_2032_18)" stroke-opacity="0.4" stroke-width="2" stroke-linecap="round" stroke-linejoin="round"/>
<defs>
<filter id="filter1_i_2032_18" x="0" y="0" width="1278" height="354.462" filterUnits="userSpaceOnUse" color-interpolation-filters="sRGB">
<feFlood flood-opacity="0" result="BackgroundImageFix"/>
<feBlend mode="normal" in="SourceGraphic" in2="BackgroundImageFix" result="shape"/>
<feColorMatrix in="SourceAlpha" type="matrix" values="0 0 0 0 0 0 0 0 0 0 0 0 0 0 0 0 0 0 127 0" result="hardAlpha"/>
<feOffset dy="4"/>
<feGaussianBlur stdDeviation="12.5"/>
<feComposite in2="hardAlpha" operator="arithmetic" k2="-1" k3="1"/>
<feColorMatrix type="matrix" values="0 0 0 0 0 0 0 0 0 0 0 0 0 0 0 0 0 0 0.25 0"/>
<feBlend mode="normal" in2="shape" result="effect1_innerShadow_2032_18"/>
</filter>
<linearGradient id="paint0_linear_2032_18" x1="428.098" y1="-68.2439" x2="1097.93" y2="153.318" gradientUnits="userSpaceOnUse">
<stop stop-color="#DCA796"/>
<stop offset="0.706731" stop-color="#D09D73" stop-opacity="0.8"/>
</linearGradient>
</defs>
</svg>

<svg xmlns="http://www.w3.org/2000/svg" width="1278" height="351" fill="none" viewBox="0 0 1278 351"><g filter="url(#a)"><path fill="#b8896e" d="m0 52.823 1.41 297.639H1278V5.384s-66.94 16.505-124.49 19.636c-57.55 3.13-166.327-12.054-219.589-10.52-53.255 1.54-67.18 10.657-99.329 10.52-32.142-.144-46.797-8.26-92.439-10.607-45.648-2.355-129.465 5.053-181.182 2.047C509.249 13.46 473.906.38 432.34.005c-41.566-.376-74.56 21.198-141.841 20.814-42.4-.242-83.143-18.181-133.077-13.878-39.109 3.37-70.788 23.479-102.03 26.329C19.669 36.528 0 52.823 0 52.823"/></g><path stroke="url(#b)" stroke-linecap="round" stroke-linejoin="round" stroke-opacity=".4" stroke-width="2" d="M432.33 1.005c20.687.187 39.836 3.534 60.34 7.227 20.491 3.691 42.313 7.722 68.243 9.226 25.915 1.506 59.849.403 92.961-.778 33.147-1.183 65.458-2.443 88.228-1.269 22.759 1.171 37.785 3.778 51.161 6.116 13.387 2.34 25.161 4.42 41.325 4.493 16.178.069 27.784-2.193 41.925-4.645 14.13-2.45 30.874-5.107 57.437-5.875 26.563-.765 67 2.64 108.08 5.855 41.02 3.212 82.68 6.233 111.53 4.664 28.84-1.57 60.01-6.488 83.96-11.01a940 940 0 0 0 29.34-6.022c3.59-.799 6.43-1.456 8.38-1.915.71-.166 1.3-.308 1.76-.419v342.81H2.406L1.002 53.307q.2-.157.51-.388a57 57 0 0 1 2.669-1.857c2.368-1.557 5.903-3.672 10.55-5.891 9.292-4.438 23.025-9.288 40.751-10.905 15.77-1.439 31.632-7.231 48.303-13.02C120.5 15.44 138.091 9.61 157.508 7.935c24.827-2.139 47.386 1.249 69.097 5.223 21.676 3.968 42.576 8.539 63.888 8.66 33.759.193 58.918-5.126 80.805-10.432C393.209 6.074 411.702.819 432.33 1.005"/><defs><linearGradient id="b" x1="428.098" x2="1097.93" y1="-68.244" y2="153.318" gradientUnits="userSpaceOnUse"><stop stop-color="#dca796"/><stop offset=".707" stop-color="#d09d73" stop-opacity=".8"/></linearGradient><filter id="a" width="1278" height="354.462" x="0" y="0" color-interpolation-filters="sRGB" filterUnits="userSpaceOnUse"><feFlood flood-opacity="0" result="BackgroundImageFix"/><feBlend in="SourceGraphic" in2="BackgroundImageFix" result="shape"/><feColorMatrix in="SourceAlpha" result="hardAlpha" values="0 0 0 0 0 0 0 0 0 0 0 0 0 0 0 0 0 0 127 0"/><feOffset dy="4"/><feGaussianBlur stdDeviation="12.5"/><feComposite in2="hardAlpha" k2="-1" k3="1" operator="arithmetic"/><feColorMatrix values="0 0 0 0 0 0 0 0 0 0 0 0 0 0 0 0 0 0 0.25 0"/><feBlend in2="shape" result="effect1_innerShadow_2032_18"/></filter></defs></svg>
